img/icons/Group 1.svg

<svg width="52" height="52" viewBox="0 0 52 52" fill="none" xmlns="http://www.w3.org/2000/svg">
<path d="M51.2125 32.3547C47.7056 46.3789 33.6779 54.7057 19.6502 51.1997C5.62255 47.6936 -2.70641 33.6695 0.800517 19.6453C4.30744 5.62114 18.3351 -2.70573 32.3628 0.800316C46.1713 4.30636 54.7195 18.3305 51.2125 32.3547Z" fill="#F7931A"/>
<path d="M37.404 22.2703C37.8423 18.7643 35.2121 17.0113 31.7052 15.6965L32.8011 11.0948L29.9517 10.4374L28.8558 15.0391C28.1982 14.82 27.3215 14.6009 26.664 14.6009L27.7599 9.99918L24.9105 9.34176L23.8146 13.9435C23.1571 13.7243 22.4995 13.7244 22.0612 13.5052L18.1158 12.6287L17.4583 15.6965C17.4583 15.6965 19.6501 16.1347 19.431 16.1347C20.5269 16.3539 20.7461 17.2304 20.7461 17.8878L19.431 23.1468H19.6501H19.431L17.4583 30.5972C17.2391 31.0354 17.0199 31.4736 16.1432 31.2545L14.1706 30.8163L12.8555 34.1032L16.5816 34.9797C17.2391 35.1988 17.8967 35.418 18.5542 35.418L17.4583 40.2388L20.3077 40.8962L21.4036 36.2945C22.2803 36.5136 22.9379 36.7327 23.5954 36.9518L22.4995 41.5535L25.3489 42.2109L26.4448 37.3901C31.2668 38.2666 34.9929 38.0475 36.5272 33.4458C37.8423 29.9397 36.5272 27.9676 33.897 26.4337C35.6505 25.9955 37.1848 24.8999 37.404 22.2703ZM31.0476 31.4737C30.1709 34.9797 24.2529 33.0075 22.2803 32.5693L23.8146 26.2146C25.7872 26.872 31.9243 27.7485 31.0476 31.4737ZM31.9244 22.2703C31.0477 25.5572 26.2256 23.8042 24.4721 23.366L25.7872 17.6686C27.5407 18.1069 32.5819 18.9834 31.9244 22.2703Z" fill="white"/>
</svg>

<svg width="52" height="52" viewBox="0 0 52 52" fill="none" xmlns="http://www.w3.org/2000/svg"><path d="M51.212 32.355C47.706 46.379 33.678 54.705 19.65 51.2 5.623 47.694-2.706 33.67.8 19.645 4.308 5.621 18.336-2.705 32.364.8c13.808 3.506 22.356 17.53 18.85 31.555z" fill="#F7931A"/><path d="M37.404 22.27c.438-3.506-2.192-5.259-5.699-6.573l1.096-4.602-2.85-.658-1.095 4.602c-.658-.219-1.535-.438-2.192-.438l1.096-4.602-2.85-.657-1.095 4.601c-.658-.219-1.316-.219-1.754-.438l-3.945-.876-.658 3.068s2.192.438 1.973.438c1.096.219 1.315 1.095 1.315 1.753l-1.315 5.259h.22-.22l-1.973 7.45c-.219.438-.438.877-1.315.657l-1.972-.438-1.316 3.287 3.727.877c.657.219 1.315.438 1.972.438l-1.096 4.82 2.85.658 1.096-4.602a27.6 27.6 0 012.191.658L22.5 41.554l2.849.657 1.096-4.82c4.822.876 8.548.657 10.082-3.945 1.315-3.506 0-5.478-2.63-7.012 1.754-.439 3.288-1.534 3.507-4.164zm-6.356 9.204c-.877 3.506-6.795 1.534-8.768 1.095l1.535-6.354c1.972.657 8.11 1.534 7.233 5.259zm.876-9.204c-.876 3.287-5.698 1.534-7.452 1.096l1.315-5.697c1.754.438 6.795 1.314 6.137 4.601z" fill="#fff"/></svg>
